X: 5081
T: Bride's Veil, The
R: jig
M: 6/8
K: Gmajor
|:GFG ~B2G|c2B AdA|GFG ~B2G|AGF D2E|
GFG ~B2G|c2B AdA|GFG ~B2G|AGF G3:|
|:gfg gdB|c2d efa|gfg Bcd|edc A3|
gfg bag|edc AGF|GFG ~B2G|AGF G3:|

